X:1
T:D Major Walter Janes, 1807
T:Isaac Watts, 1717 (Psalm 72, Part 2)        88. 88. (L. M.)
T:Burlington
T:Transcribed from The Harmonic Minstrelsey, 1807.
%%score [ 1 2 3 4 ]
L:1/8
Q:1/4=180
M:3/2
K:D
V:1 treble nm="Tr." snm="Tr."
V:2 treble nm="C." snm="C."
V:3 treble-8 nm="T." snm="T."
V:4 bass nm="B." snm="B."
V:1
 A4 B4 A4 | (d4 c4) f4 | (g4 f4) Te4 | !fermata!d6 z2 e4 | f8 A4 | B8 A4 | A8 T^G4 | %7
w: 1.~Je- sus shall|reign * where-|e'er * the|sun Does|his suc-|ces- sive|jour- neys|
w: 2.~For his shall|end- * less|prayers * be|made, And|prai- ses|throng to|crown his|
 !fermata!A6 z2 A4 | A8 B4 | A8 d4 | A8 (G2 F2) | !fermata!B6 z2 A4 | (F3 G F2 E2) (E2 D2) | %13
w: run; His|king- dom|stretch from|shore to *|shore, Till|moons~ _ _ _ shall *|
w: head; His|name like|sweet per-|fume shall *|rise With|eve- * * * ry *|
 D8 A4 | (B3 c B2 A2) (B3 c) | !fermata!d6 z2 A4 | (d>cde f4) F4 | (G>FGA B4) d4 | e8 (d2 c2) | %19
w: wax and|wane~ _ _ _ no *|more, Till|moons~ _ _ _ _ shall|wax~ _ _ _ _ and|wane no *|
w: morn- ing|sac- * * * ri- *|fice, With|eve- * * * * ry|mor- * * * * ning|sac- ri- *|
 d12 |] %20
w: more.|
w: fice.|
V:2
 F4 G4 (F3 G) | A8 F4 | (B4 F4) G4 | !fermata!F6 z2 A4 | F8 (E3 F) | G8 A4 | E8 E4 | %7
w: 3.~Peo- ple and *|realms of|eve- * ry|tongue Dwell|on his *|love with|swee- test|
 !fermata!E6 z2 E4 | F8 G4 | (F6 E2) D4 | (C3 D C2 D2) (E2 F2) | !fermata!G6 z2 A4 | %12
w: song; And|in- fant|voi- * ces|shall~ _ _ _ pro- *|claim Their|
 (F3 G F2 E2) (E2 D2) | D8 A4 | (B3 c B2 A2) (B3 c) | !fermata!A6 z2 A4 | F8 F4 | B8 F4 | A8 TA4 | %19
w: ear- * * * ly *|bles- sings|on~ _ _ _ his *|name, Their|ear- ly|bles- sings|on his|
 F12 |] %20
w: name.|
V:3
 d4 d4 (d3 e) | (f4 e4) d4 | (e4 d4) Tc4 | !fermata!d6 z2 c4 | d8 c4 | [Bd]8 d4 | c8 TB4 | %7
w: 4.~Bles- sings a- *|bound * where-|e'er * he|reigns; The|pri- soner|leaps to|lose his|
w: 5.~Let eve- ry *|crea- * ture|rise * and|bring Pe-|cu- liar|ho- nors|to our|
 !fermata!A6 z2 c4 | d8 d4 | d8 B4 | (A3 B A2 B2) (c2 d2) | !fermata!e6 z2 A4 | %12
w: chains; The|wea- ry|find e-|ter- * * * nal *|rest, And|
w: King; An-|gels de-|scend with|songs~ _ _ _ a- *|gain, And|
 (F3 G F2 E2) (E2 D2) | D8 A4 | (d3 e d2 c2) (d3 e) | !fermata!f6 z2 A4 | (B>ABc d4) D4 | %17
w: all~ _ _ _ the *|sons of|want~ _ _ _ are *|blest, And|all~ _ _ _ _ the|
w: earth~ _ _ _ re- *|peat the|long~ _ _ _ A- *|men, And|earth~ _ _ _ _ re-|
 (E>DEF G4) d4 | (A3 B A2 F2) (F2 E2) | D12 |] %20
w: sons~ _ _ _ _ of|want~ _ _ _ are *|blest.|
w: peat~ _ _ _ _ the|long~ _ _ _ A- *|men.|
V:4
 D,4 G,4 D,4 | [A,,A,]8 D,4 | (G,4 A,4) A,,4 | !fermata!D,6 z2 A,,4 | D,8 A,4 | G,8 D,4 | E,8 E,4 | %7
 !fermata![A,,A,]6 z2 A,,4 | D,8 G,4 | D,8 D,4 | A,8 A,4 | !fermata!E,6 z2 A,4 | %12
 (F,3 G, F,2 E,2) (E,2 D,2) | D,8 A,4 | G,8 G,4 | %15
 !fermata!D,6 z2"^__________________________________________________________\nEdited by B. C. Johnston, 2016.\n   1. Measure 1, \nTenor\n: grace note following replaced by eighth note.\n   2. Fermata over rests eliminated throughout." D,4 | %16
 D,8 F,4 | E,8 D,4 | A,8 A,,4 | D,12 |] %20

